packages/tokens/icons/salesforceCrmRequest/size24Px.svg

<svg viewBox="0 0 24 24" fill="none" xmlns="http://www.w3.org/2000/svg" width="1em" height="1em"><path d="M9.92465 6.83068L10.2783 7.29656L10.6835 6.87479C11.2406 6.29494 12.0102 5.93706 12.8576 5.93706C13.9879 5.93706 14.9739 6.56373 15.5088 7.51229L15.7325 7.90906L16.1483 7.72319C16.632 7.50699 17.1559 7.39537 17.6858 7.39564H17.686C19.7872 7.39564 21.5 9.1152 21.5 11.2457C21.5 13.3761 19.7872 15.0957 17.686 15.0957C17.4288 15.0957 17.1778 15.0699 16.9311 15.0208L16.5751 14.95L16.3975 15.2665C15.9416 16.0789 15.0715 16.6277 14.085 16.6277L14.084 16.6277C13.6815 16.6285 13.2842 16.5372 12.9224 16.3609L12.4494 16.1302L12.2433 16.6144C11.7712 17.7231 10.6726 18.5 9.39619 18.5C8.06194 18.5 6.92908 17.6599 6.49201 16.4755L6.34243 16.0702L5.9197 16.1594C5.72805 16.1999 5.53269 16.2202 5.33682 16.2201H5.33652C3.77364 16.2201 2.5 14.9359 2.5 13.3473C2.5 12.282 3.07212 11.355 3.92229 10.8535L4.30286 10.629L4.1269 10.2237C3.94283 9.79975 3.84809 9.34243 3.84857 8.88027V8.87975C3.84857 7.01158 5.36516 5.5 7.23628 5.5C8.33145 5.5 9.3105 6.02154 9.92465 6.83068Z" stroke="currentColor"/><path d="M9.06 10.2C9.196 10.2 9.31733 10.2133 9.424 10.24C9.53067 10.264 9.624 10.2933 9.704 10.328C9.784 10.3627 9.85067 10.4 9.904 10.44C9.95733 10.4773 9.99733 10.5107 10.024 10.54L9.84 10.964C9.82133 10.9373 9.788 10.9067 9.74 10.872C9.692 10.8347 9.63333 10.8 9.564 10.768C9.49733 10.7333 9.42 10.7053 9.332 10.684C9.24667 10.66 9.15467 10.648 9.056 10.648C8.936 10.648 8.82133 10.668 8.712 10.708C8.60533 10.748 8.51067 10.808 8.428 10.888C8.348 10.968 8.284 11.0693 8.236 11.192C8.188 11.312 8.164 11.4533 8.164 11.616C8.164 11.7653 8.18533 11.9013 8.228 12.024C8.27333 12.144 8.336 12.2467 8.416 12.332C8.49867 12.4173 8.596 12.484 8.708 12.532C8.82267 12.5773 8.94933 12.6 9.088 12.6C9.272 12.6 9.428 12.5667 9.556 12.5C9.68667 12.4307 9.79333 12.352 9.876 12.264L10.06 12.656C10.02 12.6987 9.97067 12.7427 9.912 12.788C9.856 12.8333 9.78667 12.876 9.704 12.916C9.624 12.9533 9.53067 12.984 9.424 13.008C9.31733 13.0347 9.196 13.048 9.06 13.048C8.85733 13.048 8.668 13.0147 8.492 12.948C8.31867 12.8813 8.168 12.7867 8.04 12.664C7.912 12.5413 7.81067 12.392 7.736 12.216C7.664 12.04 7.628 11.8427 7.628 11.624C7.628 11.4053 7.66533 11.208 7.74 11.032C7.81467 10.856 7.916 10.7067 8.044 10.584C8.172 10.4613 8.32267 10.3667 8.496 10.3C8.672 10.2333 8.86 10.2 9.06 10.2ZM10.5649 10.24H11.4529C11.7462 10.24 11.9782 10.3053 12.1489 10.436C12.2342 10.5027 12.3049 10.588 12.3609 10.692C12.4169 10.7933 12.4449 10.9107 12.4449 11.044C12.4449 11.164 12.4289 11.2667 12.3969 11.352C12.3676 11.4373 12.3262 11.5107 12.2729 11.572C12.2196 11.6307 12.1569 11.68 12.0849 11.72C12.0129 11.7573 11.9342 11.7893 11.8489 11.816L12.5929 13H11.9849L11.3329 11.88H11.0849V13H10.5649V10.24ZM11.3529 11.472C11.4382 11.472 11.5129 11.4667 11.5769 11.456C11.6409 11.4453 11.6982 11.4213 11.7489 11.384C11.8022 11.3467 11.8422 11.3027 11.8689 11.252C11.8956 11.2013 11.9089 11.1373 11.9089 11.06C11.9089 10.9827 11.8942 10.9187 11.8649 10.868C11.8382 10.8173 11.7996 10.7733 11.7489 10.736C11.6982 10.6987 11.6409 10.6747 11.5769 10.664C11.5129 10.6533 11.4382 10.648 11.3529 10.648H11.0809V11.472H11.3529ZM12.9217 13L13.1497 10.24H13.8337L14.5017 12.22H14.5097L15.1857 10.24H15.8457L16.0817 13H15.5697L15.4097 10.916H15.4017L14.6657 13.012L14.3017 13.012L13.5817 10.916H13.5697L13.4217 13H12.9217Z" fill="currentColor"/></svg>

<svg xmlns="http://www.w3.org/2000/svg" fill="none" viewBox="0 0 24 24" width="1em" height="1em"><path stroke="currentColor" d="m9.925 6.83.353.467.405-.422a3.007 3.007 0 0 1 2.175-.938c1.13 0 2.116.627 2.65 1.575l.225.397.415-.186a3.763 3.763 0 0 1 1.538-.327c2.101 0 3.814 1.72 3.814 3.85s-1.713 3.85-3.814 3.85c-.257 0-.508-.026-.755-.075l-.356-.071-.177.317a2.658 2.658 0 0 1-2.313 1.36h-.001a2.63 2.63 0 0 1-1.162-.266l-.473-.23-.206.483a3.092 3.092 0 0 1-5.751-.139l-.15-.405-.422.09c-.192.04-.387.06-.583.06-1.563 0-2.837-1.284-2.837-2.873a2.89 2.89 0 0 1 1.422-2.493l.38-.225-.175-.405A3.383 3.383 0 0 1 7.237 5.5a3.37 3.37 0 0 1 2.688 1.33Z"/><path fill="currentColor" d="M9.06 10.2c.136 0 .257.013.364.04.107.024.2.053.28.088a.99.99 0 0 1 .32.212l-.184.424a.433.433 0 0 0-.1-.092.904.904 0 0 0-.176-.104 1.023 1.023 0 0 0-.232-.084 1.016 1.016 0 0 0-.276-.036c-.12 0-.235.02-.344.06a.817.817 0 0 0-.284.18.872.872 0 0 0-.192.304c-.048.12-.072.261-.072.424 0 .15.021.285.064.408a.91.91 0 0 0 .188.308.89.89 0 0 0 .292.2c.115.045.241.068.38.068a1 1 0 0 0 .468-.1c.13-.07.237-.148.32-.236l.184.392a1.248 1.248 0 0 1-.356.26c-.08.037-.173.068-.28.092-.107.027-.228.04-.364.04a1.59 1.59 0 0 1-.568-.1 1.341 1.341 0 0 1-.452-.284 1.333 1.333 0 0 1-.304-.448 1.55 1.55 0 0 1-.108-.592c0-.219.037-.416.112-.592.075-.176.176-.325.304-.448s.279-.217.452-.284c.176-.067.364-.1.564-.1Zm1.505.04h.888c.293 0 .525.065.696.196a.803.803 0 0 1 .212.256.716.716 0 0 1 .084.352c0 .12-.016.223-.048.308a.656.656 0 0 1-.124.22.732.732 0 0 1-.188.148 1.46 1.46 0 0 1-.236.096L12.593 13h-.608l-.652-1.12h-.248V13h-.52v-2.76Zm.788 1.232c.085 0 .16-.005.224-.016a.396.396 0 0 0 .172-.072.375.375 0 0 0 .12-.132.41.41 0 0 0 .04-.192.38.38 0 0 0-.16-.324.396.396 0 0 0-.172-.072 1.375 1.375 0 0 0-.224-.016h-.272v.824h.272ZM12.922 13l.228-2.76h.684l.668 1.98h.008l.676-1.98h.66l.236 2.76h-.512l-.16-2.084h-.008l-.736 2.096h-.364l-.72-2.096h-.012L13.422 13h-.5Z"/></svg>
